assets/components_previews/data-display/dark/icon.svg

<svg width="320" height="232" viewBox="0 0 320 232" fill="none" xmlns="http://www.w3.org/2000/svg">
<g filter="url(#filter0_dd_10060_19416)">
<path d="M140 108C140 101.373 145.373 96 152 96H156C157.105 96 158 96.8954 158 98V112C158 113.105 157.105 114 156 114H142C140.895 114 140 113.105 140 112V108Z" fill="#5F43D0"/>
<path d="M162 120C162 118.895 162.895 118 164 118H178C179.105 118 180 118.895 180 120V124C180 130.627 174.627 136 168 136H164C162.895 136 162 135.105 162 134V120Z" fill="#5F43D0"/>
<g opacity="0.4">
<path d="M162 98C162 96.8954 162.895 96 164 96H168C174.627 96 180 101.373 180 108V112C180 113.105 179.105 114 178 114H164C162.895 114 162 113.105 162 112V98Z" fill="#5F43D0"/>
<path d="M140 120C140 118.895 140.895 118 142 118H156C157.105 118 158 118.895 158 120V134C158 135.105 157.105 136 156 136H152C145.373 136 140 130.627 140 124V120Z" fill="#5F43D0"/>
</g>
</g>
<defs>
<filter id="filter0_dd_10060_19416" x="120" y="88" width="80" height="80" filterUnits="userSpaceOnUse" color-interpolation-filters="sRGB">
<feFlood flood-opacity="0" result="BackgroundImageFix"/>
<feColorMatrix in="SourceAlpha" type="matrix" values="0 0 0 0 0 0 0 0 0 0 0 0 0 0 0 0 0 0 127 0" result="hardAlpha"/>
<feOffset dy="12"/>
<feGaussianBlur stdDeviation="10"/>
<feComposite in2="hardAlpha" operator="out"/>
<feColorMatrix type="matrix" values="0 0 0 0 0 0 0 0 0 0 0 0 0 0 0 0 0 0 0.03 0"/>
<feBlend mode="normal" in2="BackgroundImageFix" result="effect1_dropShadow_10060_19416"/>
<feColorMatrix in="SourceAlpha" type="matrix" values="0 0 0 0 0 0 0 0 0 0 0 0 0 0 0 0 0 0 127 0" result="hardAlpha"/>
<feOffset dy="2"/>
<feGaussianBlur stdDeviation="3"/>
<feComposite in2="hardAlpha" operator="out"/>
<feColorMatrix type="matrix" values="0 0 0 0 0 0 0 0 0 0 0 0 0 0 0 0 0 0 0.05 0"/>
<feBlend mode="normal" in2="effect1_dropShadow_10060_19416" result="effect2_dropShadow_10060_19416"/>
<feBlend mode="normal" in="SourceGraphic" in2="effect2_dropShadow_10060_19416" result="shape"/>
</filter>
</defs>
</svg>

<svg xmlns="http://www.w3.org/2000/svg" width="320" height="232" fill="none" viewBox="0 0 320 232"><g fill="#5F43D0" filter="url(#a)"><path d="M140 108c0-6.627 5.373-12 12-12h4a2 2 0 0 1 2 2v14a2 2 0 0 1-2 2h-14a2 2 0 0 1-2-2zm22 12a2 2 0 0 1 2-2h14a2 2 0 0 1 2 2v4c0 6.627-5.373 12-12 12h-4a2 2 0 0 1-2-2z"/><path d="M162 98a2 2 0 0 1 2-2h4c6.627 0 12 5.373 12 12v4a2 2 0 0 1-2 2h-14a2 2 0 0 1-2-2zm-22 22a2 2 0 0 1 2-2h14a2 2 0 0 1 2 2v14a2 2 0 0 1-2 2h-4c-6.627 0-12-5.373-12-12z" opacity=".4"/></g><defs><filter id="a" width="80" height="80" x="120" y="88" color-interpolation-filters="sRGB" filterUnits="userSpaceOnUse"><feFlood flood-opacity="0" result="BackgroundImageFix"/><feColorMatrix in="SourceAlpha" result="hardAlpha" values="0 0 0 0 0 0 0 0 0 0 0 0 0 0 0 0 0 0 127 0"/><feOffset dy="12"/><feGaussianBlur stdDeviation="10"/><feComposite in2="hardAlpha" operator="out"/><feColorMatrix values="0 0 0 0 0 0 0 0 0 0 0 0 0 0 0 0 0 0 0.03 0"/><feBlend in2="BackgroundImageFix" result="effect1_dropShadow_10060_19416"/><feColorMatrix in="SourceAlpha" result="hardAlpha" values="0 0 0 0 0 0 0 0 0 0 0 0 0 0 0 0 0 0 127 0"/><feOffset dy="2"/><feGaussianBlur stdDeviation="3"/><feComposite in2="hardAlpha" operator="out"/><feColorMatrix values="0 0 0 0 0 0 0 0 0 0 0 0 0 0 0 0 0 0 0.05 0"/><feBlend in2="effect1_dropShadow_10060_19416" result="effect2_dropShadow_10060_19416"/><feBlend in="SourceGraphic" in2="effect2_dropShadow_10060_19416" result="shape"/></filter></defs></svg>
